X:1
T:Title
%%score 1 { ( 2 3 6 ) | ( 4 5 7 ) }
L:1/8
Q:1/4=81
M:6/8
K:Db
V:1 treble nm="Akkordion"
V:2 treble nm="Grand Piano"
V:3 treble 
V:6 treble 
V:4 bass 
V:5 bass 
V:7 bass 
V:1
 z6 | z6 | z6 | z6 | F_F=F ABF | AA=G _G3 | GGA BBc | B=GB A3 | dcB AGF | EEE B3 | BBB ccd | %11
 feB e3 | FAf e B2- | B6 | Bcf e3 | %15
 d6[Q:1/4=80][Q:1/4=79][Q:1/4=77][Q:1/4=76][Q:1/4=75][Q:1/4=74][Q:1/4=73][Q:1/4=71][Q:1/4=70][Q:1/4=69][Q:1/4=68][Q:1/4=67][Q:1/4=66][Q:1/4=64][Q:1/4=63][Q:1/4=62] |] %16
V:2
 dc[DFB] .[CA]2 [F,A,DF] | z3[K:treble] B3 | .B3 e3 | [Fd]6[K:bass] | .F3 z3 | z3 _G3 | %6
w: Mrs.~George~A.~Fisher * * * *||||||
 .G3 .[GB]3 | .B3 .=F3 | dc[DFB] .[DA]2[K:bass] [F,A,DF] | z3[K:treble] B3 | %10
w: ||||
 [CE]-[CEB][DEB] cc[D=Gd] | z3 e3 | .F3 z B2- | B6 | .B3 e3 | z (3:2:2z A/ (3z/ f/a/ z3 |] %16
w: ||||||
V:3
 .[DF]3 z3 | .[G,B,DE]2 [G,B,DE][K:treble] B,ED | [CG]-[CGc]f z B,C | z2[K:bass] A, .D,3 | %4
 [A,D]-[A,D_F][A,D=F] .[DA]2 [F,A,DF] | .[A,CA]2 [F,A,C=G] C2 [A,C] | C-[CG][CGA] C-[CG][CGc] | %7
 _F-[F=G][FB] A2- [D=FA] | .[DF]3 z3[K:bass] | .[G,B,DE]2 [G,B,DE][K:treble] [B,DE]2 [B,DE] | %10
 .B3 .[D=G]3 | .[=Gf]2 [DGB] z B,C | z A[FAf] .[Be]2 E | GFE B,EC | [CG]-[CGc]f z B,C | %15
 z2 d- d2 z |] %16
V:4
 [D,,D,]2 [D,,D,] z GF,, | z EG,, [G,,E,]2 [=G,,E,] | E,2[K:treble] [A,A] .[A,CG]3 | %3
 [D,D]2 A,, .D,,3 | [D,,D,]2 [D,,D,] z[K:treble] B[K:bass]F,, | z AE,, [A,,E,A,]2 [A,,E,] | %6
 [E,,E,]2 [E,,E,] [A,,A,]2 [A,,A,] | [D,=G,D]2 [D,G,D] [D,A,D]2 [D,A,] | [D,,D,]2 [D,,D,] z GF,, | %9
 z EG,, [G,,G,]2 [G,,G,] | [=G,,=G,]2 [G,,G,] [E,,E,]2 [E,,E,] | z[K:treble] eE, .[A,CG]3 | %12
 [D,A,D]2 [D,D] [G,B,E]2 [G,B,] | .B,3 z3 | A,,2- [A,,A,A] .[A,CG]3 | %15
 z[K:treble] z/4 F3/4-F- F2 z |] %16
V:5
 z3 .[F,,F,]3 | .G,,3 z3 | A,,3[K:treble] z3 | x6 | z3 .[F,,F,]3[K:treble][K:bass] | .[E,,E,]3 z3 | %6
 x6 | x6 | z3 .[F,,F,]3 | .G,,3 z3 | x6 | .[E,B,D]3[K:treble] z3 | x6 | %13
 E,-[E,-A,][E,G,] [G,,E,]2 [=G,,E,] | .E,3 z3 | (3z/ F,/[K:treble]A,/ D2- D2 z |] %16
V:6
 x6 | x3[K:treble] x3 | x6 | x2[K:bass] x4 | x6 | x6 | x6 | x6 | x5[K:bass] x | x3[K:treble] x3 | %10
 x6 | x6 | x6 | x6 | x6 | .[DFd]3 .d'3 |] %16
V:7
 x6 | x6 | x2[K:treble] x4 | x6 | x4[K:treble] x[K:bass] x | x6 | x6 | x6 | x6 | x6 | x6 | %11
 x[K:treble] x5 | x6 | x6 | x6 | D,6[K:treble] |] %16

